X: 1928
T: Arrane Ben Drogh Hraghtalagh
R: reel
M: 4/4
K: Dmajor
DEFG A2A2|G2G2 F2D2|1 DEFG A2A2|d4 A4:|2 DEFG A2D2|E4 D4]
d4 F3F1|E2E2 F4|DEFG A2 D2|E4 D4||

